X:1
T:James Gibb editions
T:Incipit lamentatio - Allegri
%%score [ 1 2 3 4 ]
L:1/8
Q:1/4=160
M:none
K:Eb
V:1 treble nm="Soprano." snm="S."
V:2 treble nm="Alto." snm="A."
V:3 treble-8 nm="Tenore." snm="T."
V:4 bass nm="Basso." snm="B."
V:1
"^andante maestoso""^Gregorio Allegri\n(1582-1652)"!f!"^Incipit lamentatio" c12 c4 | %1
w: In- ci-|
"^," c4 (c8 B2 A2 | B4) c4 B6 B2 |"^," B12 B4- | B4 A4 G8 |"^," c8 B8 | (A8"^dim." G8) | %7
w: pit la\- * *|* men- ta- ti-|o Je\-|* re- mi-|ae pro-|phe\- *|
 !fermata!=A16 || z8!f! (F4 G4 | A8 F8) | !fermata!G16 | c6 c2 c4 c4- | c4 B4 B8 | A8 G6 G2 | %14
w: tae.|A\- *||leph.|Quo- mo- do se\-|* det so-|la ci- vi-|
 G12 c4 | A4 (_d6 c2 c2 BA |"^dim." B6) B2 c8 |!f! B6 B2 B4 A4- | A4 G4 F6 F2 | F4 G6 F2 (E4 | %20
w: tas ple-|na po\- * * * *|* pu- lo:|fa- cta est qua\-|* si vi- du-|a do- mi- na|
 F2 E2) E8 D4 | E4 B4 B6 E2 | F4 G4 A8 | G8 z4 A4- | A4 G4 G4 G4 | A8"^dim." G8 | !fermata!=A16 |] %27
w: * * ~gen- ti-|um: prin- ceps pro-|vin- ci- a-|rum fa\-|* cta est sub|tri bu-|to.|
V:2
!f! A12 A4 |"^," A4 (A8 G2 F2 | G4) A8 G4 | G8 F8 | z8 B8- | B4 A8 G4- | G2"^," F2"^dim." F8 =E4 | %7
w: In- ci-|pit la\- * *|* men- ta-|ti- o|Je\-|* re- mi\-|* ae pro- phe-|
 !fermata!F16 ||!f! (!courtesy!_A12 G4 | F16) | !fermata!=E16 | A6 A2 A4 G4- | G4 G4 F8- | %13
w: tae.|A\- *||leph.|Quo- mo- do se\-|* det so\-|
 F4 E4 D6 D2 | D4 (G8 A4- | A4 B4) G4 A4- |"^dim." A4 G4 A8 |!f! G6 G2 G4 c4- | c4 B4 B6 B2 | %19
w: * la ci- vi-|tas ple\- *|* * na po\-|* pu- lo:|fa- cta est qua\-|* si vi- du-|
 B8 G6 G2 | A8 F6 F2 | G4 G4 F4 G4 | A4 B4 c8 | B8 F8- | F4 E4 D4 (G4- | G2 F2) F8"^dim." =E4 | %26
w: a do- mi-|na gen- ti-|um: prin- ceps pro-|vin- ci- a-|rum fa\-|* cta est sub|* * tri- bu-|
 !fermata!F16 |] %27
w: to.|
V:3
!f! f12 f4 |"^," f12 _d4- | d4 e4 e6 e2 |"^," e4 e8 !courtesy!=d4 | (c6 d2) e8- |"^," e8 e8 | %6
w: In- ci-|pit la\-|* men- ta- ti-|o Je- re-|mi\- * ae|* pro-|
"^dim." c16 | !fermata!c16 ||!f! (f6 e2 _d2 c2 c4- | c4 B2 A2 A4 B4) | !fermata!c16 | %11
w: phe-|\-tae.|A\- * * * *||leph.|
 c6 f2 f4 e4- | e4 d4 d8- | d4 c4 =B6 B2 | =B8 (c4 e4) | f8 e8 | e4"^dim." e4 e8 |!f! e6 e2 e4 c4 | %18
w: Quo- mo- do se\-|* det so\-|* la ci- vi-|tas ple\- *|na po\-|* pu- lo:|fa- cta est qua-|
 d4 e8 d4 | d8 z8 | z16 | z4 e4 d4 e4 | _d4 B4 A8 | E4 ((e8 d2 c2 | d4)) c4 =B4 c4- | %25
w: si vi- du-|a||prin- ceps pro-|vin- ci- a-|rum fa\- * *|* cta est sub|
 c4"^rj" c4"^dim." c8 | !fermata!c16 |] %27
w: * tri- bu\--|to.|
V:4
!f! F,12 F,4 |"^," F,8 _D,8- | D,4 C,4 E,6 E,2 |"^," E,8 (B,8 | F,8) E,8 | (C,6 D,2)"^," E,8 | %6
w: In- ci-|pit la\-|* men- ta- ti-|o Je\-|* re-|mi\- * ae|
 F,8"^dim." C,8 | !fermata!F,16 ||!f! (F,12 E,4 | _D,16) | !fermata!C,16 | F,6 F,2 F,4 C4- | %12
w: pro- phe-|tae.|A\- *||leph.|Quo- mo- do se\-|
 C4 G,4 B,8"^n-" | F,8 G,6 G,2 | G,8 C,8 | _D,8 E,8- | E,4"^dim." E,4 A,8 |!f! E,6 E,2 E,4 F,4- | %18
w: * det so-|a ci- vi-|tas ple-|na po\-|* pu- lo:|fa- cta est qua\-|
 F,4 G,4 B,6 B,2 | B,8 C6 B,2 | A,8 B,6 B,2 | E,8 z8 | z16 | z8 B,8- | B,4 C4 G,4 =E,4 | %25
w: * si vi- du-|a do- mi-|na gen- ti-|um:||fa\-|* cta est sub|
 F,8"^dim." C,8 | !fermata!F,16 |] %27
w: tri- bu-|to.|

